X:1
T:Title
%%score { ( 1 3 4 ) | ( 2 5 6 ) }
L:1/8
M:6/8
K:C
V:1 treble nm="Grand Piano"
V:3 treble 
V:4 treble 
V:2 bass 
V:5 bass 
V:6 bass 
V:1
 z3 z2[Q:1/4=68] E/F/ | z z/ ^F/[EG] z z/ B/c | .[FA]3 .[Fd]3 | .[FB]3 z3 |[M:5/8] [Ec-]2 c3 | %5
[M:1/8] E/F/ |[M:3/4] z z/ ^F/ .[EG]2 z/ B/c | [FA]2 z .[Fd]3 | [FB]2 z2 z2 |[M:5/8] [Ec-]2 c3 | %10
[M:1/4] B>c |[M:3/4] [Bd]2 z2 z2 | [DB]>c [DB] [DB]2 [Bd]/d/ | [c^f][ce] [Bd][Ac] [DGB][C^FA] | %14
[M:5/8] [B,G]-[B,G]- [B,G]3 |[M:1/8] E/F/ |[M:3/4][K:bass] [EG]2[K:treble] z .[Ec]3 | %17
[M:7/8] z z/ ^G/A [Fd]3 [^Fc]/c/ |[M:3/4] [FB]2 z2 z2 | c6 | [Ge]4 ._e2 | A>^G A .[FAd]3 | %22
 [Bf]4 .e2 | cc c [^Ge]3 |[M:1/8] d/d/ |[M:3/4] c>B cd- d/^c/d |[M:7/8] [Ge]>[Ge][Ge] [Af]3 [Ad] | %27
[M:3/4] c>B cB ed | %28
[M:5/8] c-c- c3[Q:1/4=66][Q:1/4=65][Q:1/4=64][Q:1/4=63][Q:1/4=62][Q:1/4=61][Q:1/4=60][Q:1/4=59][Q:1/4=58][Q:1/4=57][Q:1/4=56][Q:1/4=55][Q:1/4=54][Q:1/4=53][Q:1/4=52] |] %29
V:2
 z3 z2 C/D/ | .[C,,C,]>_E[C,E,G,] .[A,,A,]>=E[A,CE] | z .[F,A,]2[K:treble][K:bass] z3 | %3
 z .[G,B,]2[K:treble][K:bass] z3 |[M:5/8] z G,A, G,2 |[M:1/8] C/D/ | %6
[M:3/4] .[C,,C,]>_E [C,E,G,][A,,A,] z/ =E/[A,CE] | z [F,A,][K:treble] z2[K:bass] z2 | %8
 z [G,B,][K:treble] z2[K:bass] z2 |[M:5/8] z G,A, G,2 |[M:1/4][K:treble] G>A | %11
[M:3/4][K:bass] z G,[K:treble] z2[K:bass] z2 | .G,,>E G,G,, .G,>[K:treble]B | D,D DD, D,D, | %14
[M:5/8] G,-G,- G,3 |[M:1/8] C/D/ |[M:3/4] .C,,>_E [C,E,G,][A,,A,] z/ =E/[A,CE] | %17
[M:7/8] [F,,F,] z/[K:treble] F/[F,A,CF][K:bass] [D,,D,]3 z/ ^F/ | %18
[M:3/4] .G,,>[K:treble]F .G,2 CG, | z G, A, .G,3 | z2 z[K:treble] .C3 | %21
 [F,CF]>[F,CF][K:bass] [F,CF] .D,3 | z2 z2[K:treble] ._B2 | [A,CA][A,CE] [A,CA][K:bass] [E,B,]3 | %24
[M:1/8] [^G,B,E]/[G,B,E]/ |[M:3/4] [A,E]>[A,E] [A,E][F,A,F]- [F,A,F]/[F,A,F]/[F,A,F] | %26
[M:7/8] [E,^C]>[E,C][E,C] [D,D]3 [F,D] | %27
[M:3/4][K:treble] [G,EG]>[G,_EG] [G,=EG][G,DF][K:bass] [G,,B,F][G,,B,F] |[M:5/8] z B,A, G,2 |] %29
V:3
 x6 | .[EG]3 .[Ec]3 | z z/ ^G/A z [D,A,][^Fc]/[Fc]/ | z z/ _B/[B,DF=B] [G,FG][CFA][DFB] | %4
[M:5/8] C z F E2 |[M:1/8] x |[M:3/4] [EG]2 z .[Ec]3 | z z/ ^G/ .A2 [D,A,][^Fc]/[Fc]/ | %8
 z z/ _B/ [B,DF=B][G,FG] [CFA][DFB] |[M:5/8] C z F E2 |[M:1/4] x2 | %11
[M:3/4] z z/ e/ [DBd][Bd] [B,G][CA] | x6 | x6 |[M:5/8] x5 |[M:1/8] x | %16
[M:3/4][K:bass] .E,>[K:treble]^F .[EG]2 z/ B/c |[M:7/8] [FA]2 z z z z2 | %18
[M:3/4] z z/ _B/ [DF=B][B,FG] [FA][DFB] | .[CE]2 F .E3 | z z/ C/ .C2 z/ C/=e | x6 | %22
 D>D .D2 z/ C/[Bf] | x6 |[M:1/8] x |[M:3/4] x6 |[M:7/8] x7 |[M:3/4] x6 |[M:5/8] [CE]GF E2 |] %29
V:4
 x6 | z .G,2 z .C2 | z .C2 z3 | z .D2 z3 |[M:5/8] x5 |[M:1/8] x |[M:3/4] z G, z2 .C2 | z C z2 z2 | %8
 z D z2 z2 |[M:5/8] x5 |[M:1/4] x2 |[M:3/4] z D z2 z2 | x6 | x6 |[M:5/8] x5 |[M:1/8] x | %16
[M:3/4][K:bass] z [E,G,][K:treble] z2 .C2 |[M:7/8] z C z z z z2 |[M:3/4] z D z2 z2 | x6 | x6 | x6 | %22
 z2 z .D3 | x6 |[M:1/8] x |[M:3/4] x6 |[M:7/8] x7 |[M:3/4] x6 |[M:5/8] x5 |] %29
V:5
 x6 | z .[C,E,]2 z .A,2 | .[F,,F,]>[K:treble]F[F,A,CF][K:bass] .[D,,D,]2 [D,D] | %3
 .[G,,G,]>[K:treble]FG,[K:bass] G,,G,G, |[M:5/8] C,-C,- C,3 |[M:1/8] x |[M:3/4] z [C,E,] z2 .A,2 | %7
 .[F,,F,]>[K:treble]F [F,A,CF][K:bass][D,,D,] z [D,D] | .[G,,G,]>[K:treble]F G,[K:bass]G,, G,G, | %9
[M:5/8] C,-C,- C,3 |[M:1/4][K:treble] x2 | %11
[M:3/4][K:bass] .[G,,G,]>[K:treble]c G,[K:bass][G,,G,] G,G, | z G, z2 z G,[K:treble] | x6 | %14
[M:5/8] x5 |[M:1/8] x |[M:3/4] z C, z2 .A,2 |[M:7/8] z [F,A,][K:treble] z[K:bass] z z2 D, | %18
[M:3/4] z G,[K:treble] z .G,3 | C,6 | [C,C]>E, .G,2[K:treble] ^F[CG] | x2[K:bass] x4 | %22
 z2 z .G,3[K:treble] | x3[K:bass] x3 |[M:1/8] x |[M:3/4] x6 |[M:7/8] x7 | %27
[M:3/4][K:treble] x4[K:bass] x2 |[M:5/8] C,-C,- C,3 |] %29
V:6
 x6 | x6 | x3/2[K:treble] x3/2[K:bass] x3 | x3/2[K:treble] x3/2[K:bass] x3 |[M:5/8] x5 |[M:1/8] x | %6
[M:3/4] x6 | x3/2[K:treble] x3/2[K:bass] x3 | x3/2[K:treble] x3/2[K:bass] x3 |[M:5/8] x5 | %10
[M:1/4][K:treble] x2 |[M:3/4][K:bass] x3/2[K:treble] x3/2[K:bass] x3 | x11/2[K:treble] x/ | x6 | %14
[M:5/8] x5 |[M:1/8] x |[M:3/4] x6 |[M:7/8] x3/2[K:treble] x3/2[K:bass] x4 | %18
[M:3/4] x3/2[K:treble] x9/2 | x6 | x3[K:treble] x3 | x2[K:bass] x4 | %22
 G,,>B,, .D,2[K:treble] z/ G,/[G,D] | x3[K:bass] x3 |[M:1/8] x |[M:3/4] x6 |[M:7/8] x7 | %27
[M:3/4][K:treble] x4[K:bass] x2 |[M:5/8] x5 |] %29

